epam-assets/icon-sources/18/action-calendar.svg

<svg width="18" height="18" viewBox="0 0 18 18" fill="none" xmlns="http://www.w3.org/2000/svg">
<g id="18/action-calendar">
<path id="icon" d="M3.75 16.5C3.3375 16.5 2.98425 16.3533 2.69025 16.0597C2.39675 15.7657 2.25 15.4125 2.25 15V4.5C2.25 4.0875 2.39675 3.7345 2.69025 3.441C2.98425 3.147 3.3375 3 3.75 3H4.5V1.5H6V3H12V1.5H13.5V3H14.25C14.6625 3 15.0157 3.147 15.3097 3.441C15.6033 3.7345 15.75 4.0875 15.75 4.5V15C15.75 15.4125 15.6033 15.7657 15.3097 16.0597C15.0157 16.3533 14.6625 16.5 14.25 16.5H3.75ZM3.75 15H14.25V7.5H3.75V15Z" fill="#6C6F80"/>
</g>
</svg>

<svg xmlns="http://www.w3.org/2000/svg" width="18" height="18" fill="none" viewBox="0 0 18 18">
  <path fill="#6C6F80" d="M3.75 16.5c-.413 0-.766-.147-1.06-.44A1.446 1.446 0 0 1 2.25 15V4.5c0-.412.147-.765.44-1.059A1.445 1.445 0 0 1 3.75 3h.75V1.5H6V3h6V1.5h1.5V3h.75c.412 0 .766.147 1.06.441.293.294.44.647.44 1.059V15c0 .412-.147.766-.44 1.06a1.45 1.45 0 0 1-1.06.44H3.75Zm0-1.5h10.5V7.5H3.75V15Z"/>
</svg>
